static/app-icons/dark-theme/102.svg

<svg xmlns="http://www.w3.org/2000/svg" viewBox="0 0 32 32"><defs><linearGradient id="linear-gradient" x1="26" y1="26" x2="26" y2="4" gradientUnits="userSpaceOnUse"><stop offset=".5" stop-opacity="0"/><stop offset=".9"/></linearGradient><linearGradient id="linear-gradient-2" y1="32" x2="32" gradientUnits="userSpaceOnUse"><stop offset=".1" stop-color="#ff7eb6"/><stop offset=".9" stop-color="#a56eff"/></linearGradient><style>.cls-5{fill:#f4f4f4}</style><mask id="mask" x="0" y="0" width="32" height="32" maskUnits="userSpaceOnUse"><path d="M25 5v23H7V7h3v3h12V4a2 2 0 00-2-2h-8a2 2 0 00-2 2v1H7a2 2 0 00-2 2v21a2 2 0 002 2h18a2 2 0 002-2V5zM12 4h8v4h-8z" fill="#fff"/><path fill="url(#linear-gradient)" d="M24 4h4v22h-4z"/></mask></defs><g id="Layer_2" data-name="Layer 2"><g id="Dark_theme_icons" data-name="Dark theme icons"><g mask="url(#mask)"><path fill="url(#linear-gradient-2)" d="M0 0h32v32H0z"/></g><path class="cls-5" d="M10 18h12v2H10zM10 23h8v2h-8zM10 13h12v2H10z"/></g></g></svg>

<svg xmlns="http://www.w3.org/2000/svg" xmlns:xlink="http://www.w3.org/1999/xlink" viewBox="0 0 32 32"><defs><style>.cls-1{fill:#fff;}.cls-2{fill:url(#linear-gradient);}.cls-3{mask:url(#mask);}.cls-4{fill:url(#linear-gradient-2);}.cls-5{fill:#f4f4f4;}</style><linearGradient id="linear-gradient" x1="26" y1="26" x2="26" y2="4" gradientUnits="userSpaceOnUse"><stop offset="0.5" stop-opacity="0"/><stop offset="0.9"/></linearGradient><mask id="mask" x="0" y="0" width="32" height="32" maskUnits="userSpaceOnUse"><path class="cls-1" d="M25,5V28H7V7h3v3H22V4a2,2,0,0,0-2-2H12a2,2,0,0,0-2,2V5H7A2,2,0,0,0,5,7V28a2,2,0,0,0,2,2H25a2,2,0,0,0,2-2V5ZM12,4h8V8H12Z"/><rect class="cls-2" x="24" y="4" width="4" height="22"/></mask><linearGradient id="linear-gradient-2" y1="32" x2="32" gradientUnits="userSpaceOnUse"><stop offset="0.1" stop-color="#ff7eb6"/><stop offset="0.9" stop-color="#a56eff"/></linearGradient></defs><g id="Layer_2" data-name="Layer 2"><g id="Dark_theme_icons" data-name="Dark theme icons"><g class="cls-3"><rect class="cls-4" width="32" height="32"/></g><rect class="cls-5" x="10" y="18" width="12" height="2"/><rect class="cls-5" x="10" y="23" width="8" height="2"/><rect class="cls-5" x="10" y="13" width="12" height="2"/></g></g></svg>
